X: 7
T: Drowsy Maggie
R: reel
M: 4/4
L: 1/8
K: Edor
~E3d cABE|~E2BE FADF|~E3d cABc|1 dfec dAFD:|2 dfec dAFA||defe dcBd|(3cBA eA ceAc|defe dcBc|def^g aecA|defe dcBd|(3cBA eA ceAe|faec dcBa|^gbeg aecA||


Tune 27	Setting 12407

